X: 40234
T: Tipp Staff, The
R: reel
M: 4/4
K: Gmajor
d/c/|"G" BGgG G,G GA/B/|"Am" cAaA "D" A,A AB/c/|"G" dBBd "Am" ecce|"D" dc "Am" cB "D" BAAc|
"G" BGgG G,G GA/B/|"Am" cAaA "D" A,A AB/c/|"G" Bdge "Bm7" fgag|"D" fd "A" e^c "D" d3 D||
"F" d=ffe "G" eddc|"Am" BAA^G "Dm" AA,A,B|"Am" ceed "D" dccB|"G" gdcB B3 "D" A|
"G" G,GGB "D" A,AAc|"G" B,BBd "Am" Ccce|"D" deef "G" gd "Am" cB|"D" AGAB "G" G3||

